assets/img/braze_icons/cloud-raining-01.svg

<svg fill="none" height="24" viewBox="0 0 24 24" width="24" xmlns="http://www.w3.org/2000/svg"><g fill="#801ed7"><g clip-rule="evenodd" fill-rule="evenodd"><path d="m8 18c.55228 0 1 .4477 1 1v2c0 .5523-.44772 1-1 1s-1-.4477-1-1v-2c0-.5523.44772-1 1-1z"/><path d="m16 18c.5523 0 1 .4477 1 1v2c0 .5523-.4477 1-1 1s-1-.4477-1-1v-2c0-.5523.4477-1 1-1z"/><path d="m12 19c.5523 0 1 .4477 1 1v2c0 .5523-.4477 1-1 1s-1-.4477-1-1v-2c0-.5523.4477-1 1-1z"/></g><path d="m12 1c-3.2236 0-5.9368 2.17816-6.75077 5.14303-2.43533.56658-4.24923 2.74947-4.24923 5.35697 0 3.0376 2.46243 5.5 5.5 5.5h11c3.0376 0 5.5-2.4624 5.5-5.5 0-2.6075-1.8139-4.79039-4.2492-5.35697-.814-2.96487-3.5272-5.14303-6.7508-5.14303z"/></g></svg>

<svg width="24" height="24" viewBox="0 0 24 24" fill="none" xmlns="http://www.w3.org/2000/svg">
<path fill-rule="evenodd" clip-rule="evenodd" d="M8 18C8.55228 18 9 18.4477 9 19V21C9 21.5523 8.55228 22 8 22C7.44772 22 7 21.5523 7 21V19C7 18.4477 7.44772 18 8 18Z" fill="#801ED7"/>
<path fill-rule="evenodd" clip-rule="evenodd" d="M16 18C16.5523 18 17 18.4477 17 19V21C17 21.5523 16.5523 22 16 22C15.4477 22 15 21.5523 15 21V19C15 18.4477 15.4477 18 16 18Z" fill="#801ED7"/>
<path fill-rule="evenodd" clip-rule="evenodd" d="M12 19C12.5523 19 13 19.4477 13 20V22C13 22.5523 12.5523 23 12 23C11.4477 23 11 22.5523 11 22V20C11 19.4477 11.4477 19 12 19Z" fill="#801ED7"/>
<path d="M12 1C8.7764 1 6.0632 3.17816 5.24923 6.14303C2.8139 6.70961 1 8.8925 1 11.5C1 14.5376 3.46243 17 6.5 17H17.5C20.5376 17 23 14.5376 23 11.5C23 8.8925 21.1861 6.70961 18.7508 6.14303C17.9368 3.17816 15.2236 1 12 1Z" fill="#801ED7"/>
</svg>
